X:46
T:Wet and weary
Z:Jack Campin, http://www.campin.me.uk/
F:Jack Campin's Nine-Note Tunebook
% last edit 03-02-2013
S:McFarlan MS II #36 p73
M:9/8
L:1/8
Q:3/8=120
K:Bb %Transposed from F
B3  ABG D3|B3  ABG cAF|B3  ABG D3|F3 F2d cAF:|
dBG dBG D3|dBG dBG cAF|dBG dBG d3|F3 F2A cAF:|

